X:497
T:Wild Mountain Thyme
S:Sam Gifford, Loch Tummel
Z:Nigel Gatherer
M:6/4
L:1/4
K:D
DB, | A,2B, D2E | D3- DFA | B3 B2A | FA2- AFA  |
B3    A2F  | ED2- DEF | G2 F E2D | B,D2- D DB,|
A,3   B,D2 | D3-  D || FA | B3 B2A | FA2- AFA |
B3 A2 F | ED2- DEF | G2 F E2D | B,D2- D DB,  |]
<end>
<start>
